X:8044
T:Jock o' Hazeldean
M:3/4
R:waltz
L:1/8
Z:added by Alf warnock@magma.ca
K:D
d2|"D"A4 F2|"A7"E4 "D"D2|D2 F4|A,4 B,2|
D4 D2|"B7"G4 F2|"E7"F2 E4-|E4 d2|
"D"A4 F2|"A7"E4 D2|"D"D2 F4|"A7"A,4 B,2|
"D"D4 F2|"A7"E4 D2|"D"D6-|D4 F2|
"G"G4 F2|G4 A2|B4 A2|d4 B2|
"D"A4 F2|"A7"E2 F2 A2|"G"B6-|B4 d2|
"D"A4 F2|"F#7"E4 D2|"Bm"D2 F4|"A7"A,4 B,2|
"D"D4 F2|"A7"E4 D2|"D"D6-|D4|
